symbols/web/roller_skating/materialsymbolssharp/roller_skating_wght200grad200_48px.svg

<svg xmlns="http://www.w3.org/2000/svg" height="48" width="48"><path d="M8.7 30.8V2.65h16.65V11q0 1.65.85 2.975.85 1.325 2.5 1.775l10.65 2.8V30.8Zm8.9-21.55q0-.35.225-.575.225-.225.575-.225h4.75v-3.6H10.9v23.8h26.25v-8.4l-9.1-2.45q-1.7-.45-2.75-1.35-1.05-.9-1.5-2.4h-5.35q-.4 0-.625-.225-.225-.225-.225-.575t.225-.575q.225-.225.575-.225h4.8q-.05-.45-.05-1.1v-1.3h-4.7q-.4 0-.625-.225Q17.6 9.6 17.6 9.25Zm-6.7 19.4ZM9.3 45.8q-2.1 0-3.6-1.475T4.2 40.7q0-2.15 1.475-3.625T9.3 35.6q2.15 0 3.625 1.475T14.4 40.7q0 2.1-1.475 3.6T9.3 45.8Zm0-2.2q1.25 0 2.075-.85.825-.85.825-2.05 0-1.25-.825-2.075Q10.55 37.8 9.3 37.8q-1.2 0-2.05.825-.85.825-.85 2.075 0 1.2.85 2.05.85.85 2.05.85Zm29.45 2.2q-2.15 0-3.65-1.475T33.6 40.7q0-2.15 1.5-3.625t3.6-1.475q2.15 0 3.625 1.475T43.8 40.7q0 2.1-1.475 3.6t-3.575 1.5Zm0-2.2q1.2 0 2.025-.85t.825-2.05q0-1.25-.825-2.075-.825-.825-2.025-.825-1.25 0-2.1.825-.85.825-.85 2.075 0 1.2.85 2.05.85.85 2.1.85ZM24 45.8q-2.15 0-3.6-1.475-1.45-1.475-1.45-3.625t1.45-3.625Q21.85 35.6 24 35.6q2.15 0 3.625 1.475T29.1 40.7q0 2.1-1.475 3.6T24 45.8Zm0-2.2q1.25 0 2.1-.85.85-.85.85-2.05 0-1.25-.85-2.075-.85-.825-2.1-.825t-2.075.825q-.825.825-.825 2.075 0 1.2.825 2.05.825.85 2.075.85ZM9.3 40.7Zm14.7 0Zm14.75 0Z"/></svg>

<svg xmlns="http://www.w3.org/2000/svg" height="48" width="48"><path d="M8.7 30.8V2.65H25.35V11Q25.35 12.65 26.2 13.975Q27.05 15.3 28.7 15.75L39.35 18.55V30.8ZM17.6 9.25Q17.6 8.9 17.825 8.675Q18.05 8.45 18.4 8.45H23.15V4.85H10.9V28.65H37.15V20.25L28.05 17.8Q26.35 17.35 25.3 16.45Q24.25 15.55 23.8 14.05H18.45Q18.05 14.05 17.825 13.825Q17.6 13.6 17.6 13.25Q17.6 12.9 17.825 12.675Q18.05 12.45 18.4 12.45H23.2Q23.15 12 23.15 11.35Q23.15 10.7 23.15 10.05H18.45Q18.05 10.05 17.825 9.825Q17.6 9.6 17.6 9.25ZM10.9 28.65Q10.9 28.65 10.9 28.65Q10.9 28.65 10.9 28.65Q10.9 28.65 10.9 28.65Q10.9 28.65 10.9 28.65Q10.9 28.65 10.9 28.65Q10.9 28.65 10.9 28.65ZM9.3 45.8Q7.2 45.8 5.7 44.325Q4.2 42.85 4.2 40.7Q4.2 38.55 5.675 37.075Q7.15 35.6 9.3 35.6Q11.45 35.6 12.925 37.075Q14.4 38.55 14.4 40.7Q14.4 42.8 12.925 44.3Q11.45 45.8 9.3 45.8ZM9.3 43.6Q10.55 43.6 11.375 42.75Q12.2 41.9 12.2 40.7Q12.2 39.45 11.375 38.625Q10.55 37.8 9.3 37.8Q8.1 37.8 7.25 38.625Q6.4 39.45 6.4 40.7Q6.4 41.9 7.25 42.75Q8.1 43.6 9.3 43.6ZM38.75 45.8Q36.6 45.8 35.1 44.325Q33.6 42.85 33.6 40.7Q33.6 38.55 35.1 37.075Q36.6 35.6 38.7 35.6Q40.85 35.6 42.325 37.075Q43.8 38.55 43.8 40.7Q43.8 42.8 42.325 44.3Q40.85 45.8 38.75 45.8ZM38.75 43.6Q39.95 43.6 40.775 42.75Q41.6 41.9 41.6 40.7Q41.6 39.45 40.775 38.625Q39.95 37.8 38.75 37.8Q37.5 37.8 36.65 38.625Q35.8 39.45 35.8 40.7Q35.8 41.9 36.65 42.75Q37.5 43.6 38.75 43.6ZM24 45.8Q21.85 45.8 20.4 44.325Q18.95 42.85 18.95 40.7Q18.95 38.55 20.4 37.075Q21.85 35.6 24 35.6Q26.15 35.6 27.625 37.075Q29.1 38.55 29.1 40.7Q29.1 42.8 27.625 44.3Q26.15 45.8 24 45.8ZM24 43.6Q25.25 43.6 26.1 42.75Q26.95 41.9 26.95 40.7Q26.95 39.45 26.1 38.625Q25.25 37.8 24 37.8Q22.75 37.8 21.925 38.625Q21.1 39.45 21.1 40.7Q21.1 41.9 21.925 42.75Q22.75 43.6 24 43.6ZM9.3 40.7Q9.3 40.7 9.3 40.7Q9.3 40.7 9.3 40.7Q9.3 40.7 9.3 40.7Q9.3 40.7 9.3 40.7Q9.3 40.7 9.3 40.7Q9.3 40.7 9.3 40.7Q9.3 40.7 9.3 40.7Q9.3 40.7 9.3 40.7ZM24 40.7Q24 40.7 24 40.7Q24 40.7 24 40.7Q24 40.7 24 40.7Q24 40.7 24 40.7Q24 40.7 24 40.7Q24 40.7 24 40.7Q24 40.7 24 40.7Q24 40.7 24 40.7ZM38.75 40.7Q38.75 40.7 38.75 40.7Q38.75 40.7 38.75 40.7Q38.75 40.7 38.75 40.7Q38.75 40.7 38.75 40.7Q38.75 40.7 38.75 40.7Q38.75 40.7 38.75 40.7Q38.75 40.7 38.75 40.7Q38.75 40.7 38.75 40.7Z"/></svg>
